!!!COM: Palestrina, Giovanni Perluigi da
!!!OPR: Missa In duplicibus minoribus (II)
!!!OMD: Gloria
!!!OTL: Qui tollis
**kern	**kern	**kern	**kern	**kern
*Ibass	*Itenor	*Itenor	*Icalto	*Icant
!Bassus	!Tenor 2	!Tenor 1	!Altus	!Cantus
*clefF4	*clefGv2	*clefGv2	*clefG2	*clefG2
*k[]	*k[]	*k[]	*k[]	*k[]
*E:phr	*E:phr	*E:phr	*E:phr	*E:phr
*M4/2	*M4/2	*M4/2	*M4/2	*M4/2
=66	=66	=66	=66	=66
1E	1B	1G#	1e	1b
1AA	1c	1A	1e	1a
=67	=67	=67	=67	=67
1E	1B	2.G#	2e	1b
.	.	.	2e	.
.	.	4A	.	.
2E	2.G	1B	2g	1b
2E	.	.	2e	.
.	4A	.	.	.
=68	=68	=68	=68	=68
2G	1B	2r	4d	1b
.	.	.	8e	.
.	.	.	8f	.
2E	.	1e	2.g	.
1C	1E	.	.	1cc
.	.	.	4f	.
.	.	[2c	[2e	.
=69	=69	=69	=69	=69
1F	1r	2c]	2e]	1a
.	.	4B	2d	.
.	.	4A	.	.
1E	2r	2c	[1e	1g
.	2B	2B	.	.
=70	=70	=70	=70	=70
0r	2c	1A	2e]	1a
.	2c	.	2f#	.
.	4d	[1G	[1g	1b
.	4B	.	.	.
.	2e	.	.	.
=71	=71	=71	=71	=71
1r	1d	1G]	1g]	1b
1C	[1c	1G	1e	2r
.	.	.	.	[2cc
=72	=72	=72	=72	=72
1.F	2c]	1A	1.f	2cc]
.	2c	.	.	2cc
.	2.A	[1c	.	2.cc
2F	.	.	2f	.
.	4G	.	.	4b
=73	=73	=73	=73	=73
2F	1F	2c]	1f	2a
4E	.	2c	.	4g
4D	.	.	.	4f
2.C	1G	[1c	1r	1e
4BB	.	.	.	.
=74	=74	=74	=74	=74
1AA	1F#	1c]	1r	1a
1GG	1G	1B	2r	2d
.	.	.	[2g	[2dd
=75	=75	=75	=75	=75
0r	1A	1c	2g]	4dd]
.	.	.	.	4cc
.	.	.	2f#	1cc
.	1G	1d	1g	.
.	.	.	.	2b
=76	=76	=76	=76	=76
0r	1A	1c	2e	4cc
.	.	.	.	4b
.	.	.	2.f	4a
.	.	.	.	4g
.	1B-	1d	.	2f
.	.	.	4e	.
.	.	.	[2d	2g
=77	=77	=77	=77	=77
2.AA	1A	1e	2d]	1.a
.	.	.	2c	.
4AA	.	.	.	.
2D	2.F	1d	1f	.
2D	.	.	.	2b
.	4G	.	.	.
=78	=78	=78	=78	=78
1AA	2A	1c	[0e	4cc
.	.	.	.	4b
.	2E	.	.	2.a
1E	2r	1B	.	.
.	.	.	.	4g#
.	[2E	.	.	4g#
.	.	.	.	8a
.	.	.	.	8b
=79	=79	=79	=79	=79
1AA	2E]	1A	0e]	1cc
.	1A	.	.	.
1E	.	1B	.	1b
.	2G#	.	.	.
=80	=80	=80	=80	=80
[0E	[0G#	[0B	[0e	[0b
=81	=81	=81	=81	=81
0E]	0G#]	0B]	0e]	0b]
*-	*-	*-	*-	*-
!!!CDT: 1525/^1526/-1594/2/2
!!!OCY: Italia
!!!AGN: Mass (Paraphrase)
!!!AST: renaissance, vocal
!!!ASW: Gregorian Mass
!!!PWK: Masses, Book Mantuan I
!!!RNB: Cadence finals: A
!!!YOR: Le Opere Complete, v. 18, p. 1
!!!YOO: Rome, Italy: Fratelli Scalera
!!!END: 1992//
!!!EED: John Miller
!!!YEC: Copyright 2000, John Miller
!!!YEN: United States of America
!!!YEM: Rights to all derivative electronic formats reserved.
!!!YEM: Refer to licensing agreement for further details.
!!!YEM: This file must be accompanied by the licensing agreement.
!!!YEM: A copy of the licensing agreement may be found at http://www.music-cog.ohio-state.edu/HumdrumDatabases/Palestrina/license.txt
!!!EMD: converted to Humdrum by Bret Aarden
